svg/logo/twitter_fill.svg

<?xml version="1.0" encoding="UTF-8"?>
<svg width="24px" height="24px" viewBox="0 0 24 24" version="1.1" xmlns="http://www.w3.org/2000/svg" xmlns:xlink="http://www.w3.org/1999/xlink">
    <title>twitter_fill</title>
    <g id="页面-1" stroke="none" stroke-width="1" fill="none" fill-rule="evenodd">
        <g id="Brand" transform="translate(-768.000000, -48.000000)" fill-rule="nonzero">
            <g id="twitter_fill" transform="translate(768.000000, 48.000000)">
                 <path d="M24,0 L24,24 L0,24 L0,0 L24,0 Z M12.5934901,23.257841 L12.5819402,23.2595131 L12.5108777,23.2950439 L12.4918791,23.2987469 L12.4918791,23.2987469 L12.4767152,23.2950439 L12.4056548,23.2595131 C12.3958229,23.2563662 12.3870493,23.2590235 12.3821421,23.2649074 L12.3780323,23.275831 L12.360941,23.7031097 L12.3658947,23.7234994 L12.3769048,23.7357139 L12.4804777,23.8096931 L12.4953491,23.8136134 L12.4953491,23.8136134 L12.5071152,23.8096931 L12.6106902,23.7357139 L12.6232938,23.7196733 L12.6232938,23.7196733 L12.6266527,23.7031097 L12.609561,23.275831 C12.6075724,23.2657013 12.6010112,23.2592993 12.5934901,23.257841 L12.5934901,23.257841 Z M12.8583906,23.1452862 L12.8445485,23.1473072 L12.6598443,23.2396597 L12.6498822,23.2499052 L12.6498822,23.2499052 L12.6471943,23.2611114 L12.6650943,23.6906389 L12.6699349,23.7034178 L12.6699349,23.7034178 L12.678386,23.7104931 L12.8793402,23.8032389 C12.8914285,23.8068999 12.9022333,23.8029875 12.9078286,23.7952264 L12.9118235,23.7811639 L12.8776777,23.1665331 C12.8752882,23.1545897 12.8674102,23.1470016 12.8583906,23.1452862 L12.8583906,23.1452862 Z M12.1430473,23.1473072 C12.1332178,23.1423925 12.1221763,23.1452606 12.1156365,23.1525954 L12.1099173,23.1665331 L12.0757714,23.7811639 C12.0751323,23.7926639 12.0828099,23.8018602 12.0926481,23.8045676 L12.108256,23.8032389 L12.3092106,23.7104931 L12.3186497,23.7024347 L12.3186497,23.7024347 L12.3225043,23.6906389 L12.340401,23.2611114 L12.337245,23.2485176 L12.337245,23.2485176 L12.3277531,23.2396597 L12.1430473,23.1473072 Z" id="MingCute" fill-rule="nonzero"></path>
                <path d="M4.59375,4.98379 C4.9629,4.94076 5.32546,5.10599 5.53516,5.41282 C7.01054,7.57163 8.78262,8.46969 10.7489,8.67401 C10.8454,7.83282 11.0724,7.00167 11.4991,6.26991 C12.125,5.19626 13.143,4.40582 14.5972,4.11374 C16.6066,3.71014 18.1366,4.43784 19.0244,5.32905 L20.8162,4.99409 C21.199,4.92255 21.5884,5.07965 21.8144,5.39673 C22.0403,5.71381 22.0617,6.13321 21.8691,6.47162 L20.1496,9.4937 C20.3064,13.8551 19.0944,16.8988 16.5103,18.9958 C15.1395,20.1081 13.178,20.739 11.0249,20.9338 C8.85497,21.1301 6.40214,20.8927 3.96382,20.1807 C3.53604,20.0558 3.24254,19.6629 3.24412,19.2173 C3.24569,18.7716 3.54195,18.3808 3.9706,18.2589 C5.19682,17.9102 6.13012,17.6087 6.97377,17.0822 C5.77531,16.4459 4.89225,15.6141 4.26726,14.6658 C3.39859,13.3477 3.07648,11.8783 3.01253,10.553 C2.94859,9.22784 3.14009,8.00048 3.34178,7.11465 C3.45659,6.61039 3.59069,6.10378 3.77553,5.61983 C3.90978,5.27103 4.22461,5.02683 4.59375,4.98379 Z" id="路径" fill="#09244B"></path>
            </g>
        </g>
    </g>
</svg>

<svg xmlns="http://www.w3.org/2000/svg" width="24" height="24"><g fill="none" fill-rule="nonzero"><path d="M24 0v24H0V0h24ZM12.593 23.258l-.011.002-.071.035-.02.004-.014-.004-.071-.035c-.01-.004-.019-.001-.024.005l-.004.01-.017.428.005.02.01.013.104.074.015.004.012-.004.104-.074.012-.016.004-.017-.017-.427c-.002-.01-.009-.017-.017-.018Zm.265-.113-.013.002-.185.093-.01.01-.003.011.018.43.005.012.008.007.201.093c.012.004.023 0 .029-.008l.004-.014-.034-.614c-.003-.012-.01-.02-.02-.022Zm-.715.002a.023.023 0 0 0-.027.006l-.006.014-.034.614c0 .012.007.02.017.024l.015-.002.201-.093.01-.008.004-.011.017-.43-.003-.012-.01-.01-.184-.092Z"/><path fill="#09244B" d="M4.594 4.984a1 1 0 0 1 .941.429C7.011 7.572 8.783 8.47 10.75 8.674c.096-.841.323-1.672.75-2.404.626-1.074 1.644-1.864 3.098-2.156 2.01-.404 3.54.324 4.427 1.215l1.792-.335a1 1 0 0 1 1.053 1.478l-1.72 3.022c.157 4.361-1.055 7.405-3.639 9.502-1.37 1.112-3.332 1.743-5.485 1.938-2.17.196-4.623-.041-7.061-.753a1 1 0 0 1 .007-1.922c1.226-.349 2.16-.65 3.003-1.177-1.199-.636-2.082-1.468-2.707-2.416-.868-1.318-1.19-2.788-1.254-4.113-.064-1.325.127-2.553.329-3.438.115-.505.249-1.011.434-1.495a1 1 0 0 1 .818-.636Z"/></g></svg>
